X: 1
T: Heavens to Betsy
C: Todd Silverstein
R: jig
Z: 2012 John Chambers <jc:trillian.mit.edu>
S: printed MS of unknown origin
M: 6/8
L: 1/8
K: D
|: "D"F>ED DEF | A>BA AFD | "G"G>GG GAB | "A7"E2E EFG |
"D"F>ED DEF | A>BA AFD | "G"Gz2 B>cB |1 "A7"ABc "D"d2A :|2 "A7"ABc "D"d2e :|
|: "Bm"f>gf fdB | fdB Bcd | "A"e>fe ecA | ecA ABc | "G"d>ed dBG |
dBG GAB |1 "A7"cBc dcd | ede gfe :|2 "A7"cdc BcB | ABA GFE |]
